packages/dnb-eufemia/assets/icons/credit_note_medium.svg

<svg width="24" height="24" viewBox="0 0 24 24" fill="none" xmlns="http://www.w3.org/2000/svg">
<path d="M4.50004 3.5V2C4.50004 1.44772 4.94776 1 5.50004 1H15.5362C15.8304 1 16.1096 1.12951 16.2996 1.35406L21.2634 7.22037C21.4162 7.40092 21.5 7.62979 21.5 7.86631V22C21.5 22.5523 21.0523 23 20.5 23H5.50004C4.94776 23 4.50004 22.5523 4.50004 22V20.5M3 17.3077L1 15M1 15L3 12.6923M1 15H7.66667C9.50762 15 11 13.278 11 11.1538C11 9.02967 9.50762 7.30769 7.66667 7.30769H5" stroke="black" stroke-width="1.5" stroke-linecap="round" stroke-linejoin="round"/>
</svg>

<svg width="24" height="24" viewBox="0 0 24 24" fill="none" xmlns="http://www.w3.org/2000/svg"><path d="M4.5 3.5V2a1 1 0 0 1 1-1h10.036a1 1 0 0 1 .764.354l4.963 5.866a1 1 0 0 1 .237.646V22a1 1 0 0 1-1 1h-15a1 1 0 0 1-1-1v-1.5M3 17.308 1 15m0 0 2-2.308M1 15h6.667C9.507 15 11 13.278 11 11.154S9.508 7.308 7.667 7.308H5" stroke="#000" stroke-width="1.5" stroke-linecap="round" stroke-linejoin="round"/></svg>
